art/system/custom-collections.svg

<?xml version="1.0" encoding="utf-8"?>
<svg width="100%" height="100%" viewBox="0 0 200 40" version="1.1" style="fill-rule:evenodd;clip-rule:evenodd;stroke-linejoin:round;stroke-miterlimit:2;" xmlns="http://www.w3.org/2000/svg">
  <path d="M39.559,24.005L39.079,29.045C37.799,29.565 36.179,29.825 34.219,29.825C31.699,29.825 29.892,29.335 28.799,28.355C27.712,27.375 27.169,25.865 27.169,23.825C27.169,22.965 27.309,21.695 27.589,20.015C28.189,16.575 29.222,14.075 30.689,12.515C32.162,10.955 34.489,10.175 37.669,10.175C38.409,10.175 39.256,10.252 40.209,10.405C41.156,10.552 41.849,10.735 42.289,10.955L40.609,15.545C39.429,15.265 38.326,15.125 37.299,15.125C36.266,15.125 35.529,15.225 35.089,15.425C34.649,15.625 34.379,16.025 34.279,16.625L32.899,24.485C33.619,24.645 34.359,24.725 35.119,24.725C36.739,24.725 38.219,24.485 39.559,24.005ZM49.129,16.895L47.749,24.695L50.119,24.695C50.899,24.695 51.479,24.602 51.859,24.415C52.239,24.222 52.489,23.785 52.609,23.105L53.989,15.305L51.589,15.305C50.829,15.305 50.259,15.398 49.879,15.585C49.499,15.778 49.249,16.215 49.129,16.895ZM52.579,10.175C55.119,10.175 56.929,10.672 58.009,11.665C59.089,12.652 59.629,14.175 59.629,16.235C59.629,18.295 59.302,20.452 58.649,22.705C58.002,24.952 56.972,26.698 55.559,27.945C54.152,29.198 52.092,29.825 49.379,29.825C46.672,29.825 44.779,29.332 43.699,28.345C42.619,27.352 42.079,25.825 42.079,23.765C42.079,22.785 42.219,21.492 42.499,19.885C42.779,18.272 43.149,16.882 43.609,15.715C44.069,14.542 44.689,13.525 45.469,12.665C46.969,11.005 49.339,10.175 52.579,10.175ZM72.798,24.575L71.958,29.375L60.558,29.375L63.858,10.625L69.558,10.625L67.098,24.575L72.798,24.575ZM85.578,24.575L84.738,29.375L73.338,29.375L76.638,10.625L82.338,10.625L79.878,24.575L85.578,24.575ZM99.528,17.945L98.748,22.295L93.048,22.295L92.658,24.575L99.648,24.575L98.808,29.375L86.118,29.375L89.418,10.625L101.958,10.625L100.398,15.425L94.248,15.425L93.828,17.945L99.528,17.945ZM114.918,24.005L114.438,29.045C113.158,29.565 111.538,29.825 109.578,29.825C107.058,29.825 105.251,29.335 104.158,28.355C103.071,27.375 102.528,25.865 102.528,23.825C102.528,22.965 102.668,21.695 102.948,20.015C103.548,16.575 104.581,14.075 106.048,12.515C107.521,10.955 109.848,10.175 113.028,10.175C113.768,10.175 114.614,10.252 115.568,10.405C116.514,10.552 117.208,10.735 117.648,10.955L115.968,15.545C114.788,15.265 113.684,15.125 112.658,15.125C111.624,15.125 110.888,15.225 110.448,15.425C110.008,15.625 109.738,16.025 109.638,16.625L108.258,24.485C108.978,24.645 109.718,24.725 110.478,24.725C112.098,24.725 113.578,24.485 114.918,24.005ZM132.918,10.625L132.048,15.425L127.908,15.425L125.478,29.375L119.778,29.375L122.208,15.425L118.098,15.425L118.968,10.625L132.918,10.625ZM137.477,29.375L131.777,29.375L135.077,10.625L140.777,10.625L137.477,29.375ZM148.487,16.895L147.107,24.695L149.477,24.695C150.257,24.695 150.837,24.602 151.217,24.415C151.597,24.222 151.847,23.785 151.967,23.105L153.347,15.305L150.947,15.305C150.187,15.305 149.617,15.398 149.237,15.585C148.857,15.778 148.607,16.215 148.487,16.895ZM151.937,10.175C154.477,10.175 156.287,10.672 157.367,11.665C158.447,12.652 158.987,14.175 158.987,16.235C158.987,18.295 158.661,20.452 158.007,22.705C157.361,24.952 156.331,26.698 154.917,27.945C153.511,29.198 151.451,29.825 148.737,29.825C146.031,29.825 144.137,29.332 143.057,28.345C141.977,27.352 141.437,25.825 141.437,23.765C141.437,22.785 141.577,21.492 141.857,19.885C142.137,18.272 142.507,16.882 142.967,15.715C143.427,14.542 144.047,13.525 144.827,12.665C146.327,11.005 148.697,10.175 151.937,10.175ZM175.757,29.375L170.387,29.375L167.327,22.715C167.247,22.575 167.207,22.378 167.207,22.125C167.207,21.878 167.227,21.595 167.267,21.275L167.027,21.275L165.617,29.375L159.917,29.375L163.217,10.625L168.587,10.625L171.647,17.285C171.707,17.425 171.737,17.622 171.737,17.875C171.737,18.122 171.717,18.405 171.677,18.725L171.917,18.725L173.357,10.625L179.057,10.625L175.757,29.375ZM179.027,29.045L180.707,24.095C182.387,24.555 183.927,24.785 185.327,24.785C186.727,24.785 187.857,24.725 188.717,24.605L188.957,23.105L186.467,22.865C184.567,22.685 183.22,22.255 182.427,21.575C181.64,20.895 181.247,19.935 181.247,18.695C181.247,18.155 181.307,17.555 181.427,16.895C181.887,14.335 182.72,12.575 183.927,11.615C185.14,10.655 187.017,10.175 189.557,10.175C192.097,10.175 194.337,10.425 196.277,10.925L194.717,15.725C192.977,15.425 191.577,15.275 190.517,15.275C189.457,15.275 188.557,15.325 187.817,15.425L187.577,16.895L189.587,17.105C191.627,17.325 193.077,17.812 193.937,18.565C194.797,19.312 195.227,20.315 195.227,21.575C195.227,22.855 194.947,24.175 194.387,25.535C194.107,26.235 193.8,26.822 193.467,27.295C193.14,27.762 192.72,28.158 192.207,28.485C191.7,28.818 191.237,29.068 190.817,29.235C190.397,29.408 189.867,29.535 189.227,29.615C188.287,29.755 187.137,29.825 185.777,29.825C183.297,29.825 181.047,29.565 179.027,29.045Z" style="fill:white;fill-rule:nonzero;"/>
  <path d="M 17.197 11.658 L 22.188 16.708 C 24.235 18.778 24.235 22.105 22.188 24.175 L 17.814 28.6 C 17.451 28.967 16.857 28.971 16.49 28.608 C 16.123 28.245 16.119 27.651 16.482 27.284 L 20.852 22.859 C 22.176 21.52 22.176 19.368 20.852 18.028 L 15.865 12.978 C 15.502 12.611 15.506 12.018 15.873 11.654 C 16.24 11.291 16.834 11.295 17.197 11.662 L 17.197 11.658 Z M 3.723 19.094 L 3.723 13.256 C 3.723 12.221 4.563 11.381 5.598 11.381 L 11.436 11.381 C 12.1 11.381 12.737 11.643 13.206 12.111 L 19.767 18.673 C 20.743 19.649 20.743 21.231 19.767 22.207 L 14.553 27.421 C 13.577 28.397 11.995 28.397 11.018 27.421 L 4.457 20.86 C 3.985 20.391 3.723 19.758 3.723 19.094 Z M 9.347 15.755 C 9.347 15.069 8.783 14.505 8.097 14.505 C 7.412 14.505 6.847 15.069 6.847 15.755 C 6.847 16.441 7.412 17.005 8.097 17.005 C 8.783 17.005 9.347 16.441 9.347 15.755 Z" style="fill:white;fill-rule:nonzero;"/>
</svg>

<svg xmlns="http://www.w3.org/2000/svg" viewBox="0 0 200 40"><path d="m39.56 24-.48 5.05q-1.92.78-4.86.77-3.78 0-5.42-1.46-1.63-1.48-1.63-4.53 0-1.29.42-3.81.9-5.16 3.1-7.5t6.98-2.34q1.11 0 2.54.22 1.42.22 2.08.55l-1.68 4.6a14 14 0 0 0-3.31-.43 6 6 0 0 0-2.21.3q-.66.3-.81 1.2l-1.38 7.86q1.08.25 2.22.25 2.43 0 4.44-.73m9.57-7.1-1.38 7.8h2.37q1.17 0 1.74-.29t.75-1.3l1.38-7.8h-2.4q-1.14 0-1.71.28t-.75 1.3m3.45-6.72q3.81 0 5.43 1.48 1.62 1.5 1.62 4.57 0 3.1-.98 6.47-.97 3.38-3.1 5.25-2.1 1.88-6.17 1.88-4.05 0-5.68-1.48-1.62-1.5-1.62-4.59 0-1.47.42-3.87.42-2.42 1.1-4.18a10 10 0 0 1 1.87-3.05q2.25-2.48 7.1-2.48m20.22 14.4-.84 4.8h-11.4l3.3-18.75h5.7L67.1 24.57zm12.78 0-.84 4.8h-11.4l3.3-18.75h5.7l-2.46 13.94zm13.95-6.63-.78 4.35h-5.7l-.4 2.27h7l-.84 4.8H86.1l3.3-18.74h12.55l-1.56 4.8h-6.15l-.42 2.52zm15.4 6.06-.48 5.04q-1.92.78-4.86.77-3.78 0-5.42-1.46-1.63-1.48-1.63-4.53 0-1.29.42-3.81.9-5.16 3.1-7.5t6.98-2.34q1.1 0 2.54.22 1.42.22 2.08.55l-1.68 4.6a14 14 0 0 0-3.31-.43 6 6 0 0 0-2.21.3q-.66.3-.81 1.2l-1.38 7.86q1.08.25 2.22.25 2.43 0 4.44-.73m18-13.39-.87 4.8h-4.14l-2.43 13.96h-5.7l2.43-13.95h-4.11l.87-4.8zm4.56 18.76h-5.7l3.3-18.75h5.7zm11-12.48-1.37 7.8h2.37q1.17 0 1.74-.29t.75-1.3l1.38-7.8h-2.4q-1.14 0-1.71.28t-.75 1.3m3.46-6.72q3.81 0 5.43 1.48 1.62 1.5 1.62 4.57 0 3.1-.98 6.47-.97 3.38-3.1 5.25-2.1 1.88-6.17 1.88-4.05 0-5.68-1.48-1.62-1.5-1.62-4.59 0-1.47.42-3.87.42-2.42 1.1-4.18a10 10 0 0 1 1.87-3.05q2.25-2.48 7.1-2.48m23.82 19.2h-5.37l-3.06-6.66a1 1 0 0 1-.12-.6q0-.37.06-.85h-.24l-1.41 8.1h-5.7l3.3-18.74h5.37l3.06 6.65q.09.21.09.6 0 .37-.06.85h.24l1.44-8.1h5.7zm3.27-.33 1.68-4.96q2.52.7 4.62.7t3.39-.18l.24-1.5-2.5-.25q-2.85-.27-4.03-1.28a3.6 3.6 0 0 1-1.18-2.88q0-.81.18-1.8.69-3.84 2.5-5.28 1.82-1.44 5.63-1.44t6.72.75l-1.56 4.8q-2.61-.46-4.2-.46t-2.7.16l-.24 1.47 2 .2q3.07.33 4.36 1.47a3.8 3.8 0 0 1 1.29 3q0 1.93-.84 3.97-.42 1.05-.92 1.76a4 4 0 0 1-1.26 1.18q-.76.51-1.4.75-.62.27-1.58.38-1.42.21-3.45.21-3.72 0-6.75-.77" style="white-space:pre;fill:#fff"/><path d="M8.17 16.66c0-.62.5-1.12 1.1-1.12h4.45c.62 0 1.11.5 1.11 1.12v3.33c0 .61-.5 1.11-1.1 1.11H9.27a1.1 1.1 0 0 1-1.11-1.11zm5.55 5.55c1.23 0 2.22-1 2.22-2.22v-1.11h2.23c.61 0 1.1.5 1.1 1.1v3.34a1.1 1.1 0 0 1-1.1 1.11h-4.45c-.61 0-1.1-.5-1.1-1.1V22.2zm-8.89-6.96a2.22 2.22 0 1 1 3.04-3.04h11.7a2.21 2.21 0 0 1 4.15 1.11c0 .82-.45 1.54-1.1 1.93v9.48a2.22 2.22 0 1 1-3.04 3.04H7.87a2.22 2.22 0 1 1-3.04-3.04zm3.04-.82q-.3.52-.81.82v9.48q.51.3.8.81h11.72q.3-.5.81-.8v-9.5q-.52-.3-.81-.8z" style="fill:#fff"/></svg>
